X:1
T:En Passant la Riviere
C:traditionell
A:France
Z:abc transcription Simon Wascher
M:2/4
L:1/8
K:D
F |\
D3/2E/2 FG | A3A | B3/2c/2 dB | A3/2G/2 FE |\
D3/2E/2 FG | A3A | B3/2c/2 dB | A3 :|
|: A |\
F3/2D/2 FA | G3/2F/2 EF | G3/2F/2 GB | A3/2G/2 FA |\
F3/2D/2 FA | G3/2F/2 EF | GA Bc |1 d3A :|\
                                [2 d3 |]
